X: 27740
T: Morning Star, The
R: hornpipe
M: 4/4
K: Gmajor
GA|:BABG E2 FG|ABAF D2 GA|BABG EFGE|D2 G2 G2 GA|
BABG E2 FG|ABAF D2 GA|BABG EF (3GFE|1 D2 G2 G3 A:|2 D2 G2 G4||
BABd efge|dcBA G2 GA|BABd efge|f2 d2 d4|
BABd efge|dcBA G2 GA|BABG EF (3GFE|D2 G2 G4||

